img/icons/service-icon4.svg

<svg width="60" height="60" viewBox="0 0 60 60" fill="none" xmlns="http://www.w3.org/2000/svg">
<g clip-path="url(#clip0_48_81)">
<path fill-rule="evenodd" clip-rule="evenodd" d="M26.3122 9.73323C22.2463 9.71349 19.0136 12.9462 19.0333 17.0121L19.1402 39.0257C19.1717 45.5192 24.5404 50.8879 31.0339 50.9194C37.3243 50.9499 42.3255 45.9487 42.295 39.6583L42.1941 18.8775C42.1878 17.5842 43.2315 16.5645 44.5252 16.5999C45.8188 16.6352 46.8727 17.7122 46.879 19.0055L46.9798 39.7863C47.0227 48.6221 39.9977 55.6471 31.1619 55.6042C22.0407 55.56 14.4996 48.0188 14.4553 38.8977L14.3485 16.8841C14.3164 10.2727 19.5728 5.0163 26.1842 5.04839C33.0091 5.08152 38.6517 10.7241 38.6848 17.549L38.7876 38.7255C38.8068 42.6675 35.6726 45.8017 31.7306 45.7825C27.6612 45.7628 24.2968 42.3984 24.277 38.329L24.1901 20.4275C24.1839 19.1343 25.2275 18.1145 26.5212 18.1499C27.8149 18.1852 28.8687 19.2622 28.875 20.5555L28.9619 38.457C28.9689 39.8987 30.1608 41.0907 31.6026 41.0977C32.9992 41.1045 34.1096 39.9941 34.1028 38.5975L34 17.421C33.9796 13.2238 30.5095 9.7536 26.3122 9.73323Z" fill="#E3000F"/>
</g>
<defs>
<clipPath id="clip0_48_81">
<rect width="60" height="60" fill="white"/>
</clipPath>
</defs>
</svg>

<svg width="60" height="60" fill="none" xmlns="http://www.w3.org/2000/svg"><g clip-path="url(#clip0_48_81)"><path fill-rule="evenodd" clip-rule="evenodd" d="M26.312 9.733a7.197 7.197 0 00-7.279 7.28l.107 22.013c.032 6.493 5.4 11.862 11.894 11.893 6.29.03 11.291-4.97 11.261-11.26l-.1-20.781a2.253 2.253 0 012.33-2.278 2.435 2.435 0 012.354 2.405l.1 20.781c.044 8.836-6.981 15.861-15.817 15.818C22.04 55.56 14.5 48.02 14.455 38.898l-.107-22.014c-.032-6.611 5.225-11.868 11.836-11.836 6.825.034 12.468 5.676 12.5 12.501l.104 21.176a6.977 6.977 0 01-7.057 7.057c-4.07-.02-7.434-3.384-7.454-7.453l-.087-17.902a2.253 2.253 0 012.331-2.277 2.435 2.435 0 012.354 2.405l.087 17.902a2.672 2.672 0 002.64 2.64 2.472 2.472 0 002.5-2.5L34 17.421c-.02-4.197-3.49-7.667-7.688-7.688z" fill="#E3000F"/></g><defs><clipPath id="clip0_48_81"><path fill="#fff" d="M0 0h60v60H0z"/></clipPath></defs></svg>
